src/img/logo.svg

<svg width="128" height="40" viewBox="0 0 128 40" fill="none" xmlns="http://www.w3.org/2000/svg">
<path fill-rule="evenodd" clip-rule="evenodd" d="M37.5866 29.5159C32.3308 39.2286 20.197 42.8424 10.4835 37.5866C0.770789 32.3308 -2.84225 20.197 2.41356 10.4835C7.66861 0.770788 19.8032 -2.84225 29.5159 2.41356C39.2286 7.66861 42.8424 19.8032 37.5866 29.5159Z" fill="#412E46"/>
<path fill-rule="evenodd" clip-rule="evenodd" d="M21.0015 8.74398C20.8484 8.74398 20.6953 8.77216 20.5308 8.83081C18.952 9.39972 18.543 13.4834 19.07 16.9403C19.5689 20.2175 20.8331 23.3797 22.6305 25.8465L22.7745 26.0445L22.8948 25.8313C23.8849 24.0727 25.0159 21.0477 24.7752 16.6266C24.5947 13.2946 23.223 9.85592 21.7196 8.96104C21.4744 8.81481 21.2398 8.74398 21.0015 8.74398ZM9.94605 15.1285C9.79982 15.1285 9.65816 15.1757 9.51498 15.274C8.96815 15.6464 8.15857 17.0546 8.5942 19.9654C8.99252 22.628 10.3276 25.4109 11.1044 26.4535L11.323 26.7383L11.4296 26.4939C12.1753 24.7894 12.47 22.5115 12.2788 19.9068C12.0504 16.769 10.9102 15.4727 10.2735 15.2016C10.1578 15.1521 10.0504 15.1285 9.94605 15.1285ZM16.5903 31.6187C14.6931 31.6187 13.1181 31.0003 11.6338 29.6728L11.5233 29.5738L11.4182 29.6774C10.4677 30.6126 9.30554 31.1663 7.96284 31.3224C7.8128 31.3399 7.65896 31.3483 7.50207 31.3483C6.22334 31.3483 4.69785 30.8121 3.69558 30.3118C3.46101 30.1945 2.97815 29.9531 2.44579 29.6164C1.45724 27.8099 0.761132 25.8716 0.375 23.8534C0.620236 23.6569 0.927161 23.5335 1.17773 23.5335C1.93628 23.5647 1.96751 23.9189 1.9736 24.7894C1.98274 25.9844 1.99569 27.7894 4.93471 29.212C5.78999 29.6271 6.63994 29.7139 7.20276 29.7139C7.41372 29.7139 7.59422 29.701 7.73207 29.685C8.64219 29.5799 9.49899 29.129 10.2111 28.3811L10.307 28.2806L10.2187 28.1724C10.01 27.9181 9.80363 27.6523 9.598 27.3766C8.69931 26.1725 7.23398 23.1451 6.79149 20.1878C6.35586 17.2777 6.9659 14.9472 8.42284 13.9541C8.88057 13.6426 9.40683 13.4773 9.94529 13.4773C10.3177 13.4773 10.6878 13.555 11.0458 13.7081C12.7541 14.4354 13.8652 16.6547 14.0953 19.7971C14.2933 22.5198 13.9445 25.1085 13.1128 27.0879C12.9658 27.436 12.8036 27.768 12.6299 28.075L12.5698 28.1808L12.6566 28.2654C13.8751 29.4489 15.0777 29.9767 16.556 29.9767C17.083 29.9767 17.6573 29.9112 18.3115 29.7771C19.4714 29.5395 20.6222 28.7962 21.6389 27.6294L21.725 27.5304L21.5399 27.2989C19.3633 24.5617 17.8461 20.9631 17.2681 17.1658C17.1356 16.2991 16.0846 8.65716 19.8598 7.2977C20.2391 7.16061 20.6245 7.09131 21.0053 7.09131C21.5963 7.09131 22.1713 7.25581 22.7166 7.58026C25.0159 8.94885 26.4065 13.127 26.5924 16.5466C26.8178 20.6943 25.9176 24.532 24.0585 27.3522L23.9877 27.4596L24.0791 27.5502C25.6411 29.1054 27.2969 29.9279 28.8665 29.9279C28.9389 29.9279 29.0112 29.9264 29.0828 29.9226C30.5771 29.848 31.9122 29.1084 32.9434 27.7833C35.4323 24.5853 35.6288 18.3691 33.7385 10.2565L33.8748 10.2459C36.363 18.855 36.1345 25.9333 34.2457 28.7436C33.0576 30.5113 31.3539 31.4626 29.1826 31.5699C29.0752 31.5753 28.9686 31.5783 28.8619 31.5783C26.8924 31.5783 24.8765 30.6629 23.0326 28.9302L22.9184 28.8228L22.811 28.9371C21.5788 30.2432 20.1614 31.0901 18.7113 31.3872C17.9642 31.5402 17.2506 31.6187 16.5903 31.6187Z" fill="white"/>
<path fill-rule="evenodd" clip-rule="evenodd" d="M62.9963 13.3466H60.7982C60.6223 13.3466 60.4628 13.4403 60.3851 13.588L56.0272 21.8732C55.8663 22.1813 55.6018 22.1813 55.4395 21.8732L51.0899 13.588C51.0122 13.4403 50.8526 13.3466 50.6781 13.3466H48.461C48.116 13.3466 47.8938 13.6894 48.0519 13.9782L54.8682 26.428C54.9473 26.5717 55.1055 26.6629 55.2773 26.6629H56.2768C56.4499 26.6629 56.6081 26.5705 56.6872 26.4254L63.4067 13.9757C63.5621 13.6881 63.3399 13.3466 62.9963 13.3466Z" fill="#412E46"/>
<path fill-rule="evenodd" clip-rule="evenodd" d="M100.587 13.3511H98.3891C98.2132 13.3511 98.0536 13.4448 97.9759 13.5924L93.6181 21.8777C93.4572 22.1858 93.1926 22.1858 93.0304 21.8777L88.6807 13.5924C88.603 13.4448 88.4434 13.3511 88.2689 13.3511H86.0518C85.7068 13.3511 85.4846 13.6938 85.6427 13.9827L92.459 26.4324C92.5381 26.5762 92.6963 26.6673 92.8681 26.6673H93.8676C94.0407 26.6673 94.1989 26.5749 94.278 26.4298L100.997 13.9801C101.153 13.6926 100.931 13.3511 100.587 13.3511Z" fill="#412E46"/>
<path fill-rule="evenodd" clip-rule="evenodd" d="M75.5766 24.0363H67.904C67.6504 24.0363 67.4445 23.8425 67.4445 23.6037V21.6486C67.4445 21.4098 67.6504 21.2159 67.904 21.2159H74.9794C75.233 21.2159 75.4389 21.0221 75.4389 20.782V19.0528C75.4389 18.8128 75.233 18.6189 74.9794 18.6189H67.9231C67.6695 18.6189 67.4636 18.4251 67.4636 18.1863V16.4378C67.4636 16.1991 67.6695 16.0052 67.9231 16.0052H75.5684C75.8234 16.0052 76.0293 15.8114 76.0293 15.5713V13.7972C76.0293 13.5571 75.8234 13.3633 75.5684 13.3633H65.1128C64.8592 13.3633 64.6533 13.5571 64.6533 13.7972V26.2007C64.6533 26.4408 64.8592 26.6346 65.1128 26.6346H75.5766C75.8302 26.6346 76.0361 26.4408 76.0361 26.2007V24.4689C76.0361 24.2302 75.8302 24.0363 75.5766 24.0363Z" fill="#412E46"/>
<path fill-rule="evenodd" clip-rule="evenodd" d="M113.127 24.0363H105.455C105.201 24.0363 104.995 23.8425 104.995 23.6037V21.6486C104.995 21.4098 105.201 21.2159 105.455 21.2159H112.53C112.784 21.2159 112.99 21.0221 112.99 20.782V19.0528C112.99 18.8128 112.784 18.6189 112.53 18.6189H105.474C105.22 18.6189 105.014 18.4251 105.014 18.1863V16.4378C105.014 16.1991 105.22 16.0052 105.474 16.0052H113.119C113.374 16.0052 113.58 15.8114 113.58 15.5713V13.7972C113.58 13.5571 113.374 13.3633 113.119 13.3633H102.664C102.41 13.3633 102.204 13.5571 102.204 13.7972V26.2007C102.204 26.4408 102.41 26.6346 102.664 26.6346H113.127C113.381 26.6346 113.588 26.4408 113.588 26.2007V24.4689C113.588 24.2302 113.381 24.0363 113.127 24.0363Z" fill="#412E46"/>
<path fill-rule="evenodd" clip-rule="evenodd" d="M127.539 13.3448H115.587C115.334 13.3448 115.128 13.5386 115.128 13.7774V15.5336C115.128 15.7723 115.334 15.9662 115.587 15.9662H119.727C119.982 15.9662 120.188 16.16 120.188 16.4001V26.2233C120.188 26.4621 120.394 26.6559 120.648 26.6559H122.506C122.76 26.6559 122.967 26.4621 122.967 26.2233V16.368C122.967 16.1292 123.173 15.9354 123.426 15.9354H127.539C127.792 15.9354 128 15.7403 128 15.5015V13.7774C128 13.5386 127.792 13.3448 127.539 13.3448Z" fill="#412E46"/>
<path fill-rule="evenodd" clip-rule="evenodd" d="M88.7364 24.0089H81.4101C81.1565 24.0089 80.9493 23.8151 80.9493 23.5763V13.7672C80.9493 13.5272 80.7434 13.3333 80.4898 13.3333H78.5835C78.3299 13.3333 78.124 13.5272 78.124 13.7672V26.199C78.124 26.439 78.3299 26.6329 78.5835 26.6329H88.7364C88.99 26.6329 89.1973 26.439 89.1973 26.199V24.4415C89.1973 24.2028 88.99 24.0089 88.7364 24.0089Z" fill="#412E46"/>
</svg>

<svg width="128" height="40" viewBox="0 0 128 40" fill="none" xmlns="http://www.w3.org/2000/svg"><path fill-rule="evenodd" clip-rule="evenodd" d="M37.587 29.516c-5.256 9.713-17.39 13.326-27.104 8.07-9.712-5.255-13.325-17.389-8.07-27.102C7.67.77 19.804-2.843 29.517 2.413c9.713 5.255 13.326 17.39 8.07 27.102z" fill="#412E46"/><path fill-rule="evenodd" clip-rule="evenodd" d="M21.002 8.744c-.154 0-.307.028-.471.087-1.579.569-1.988 4.652-1.461 8.11.499 3.277 1.763 6.439 3.56 8.905l.145.198.12-.213c.99-1.758 2.12-4.783 1.88-9.204-.18-3.332-1.552-6.771-3.055-7.666a1.382 1.382 0 00-.718-.217zM9.946 15.129a.75.75 0 00-.431.145c-.547.372-1.356 1.78-.92 4.691.398 2.663 1.733 5.446 2.51 6.488l.218.285.107-.244c.745-1.705 1.04-3.982.849-6.587-.229-3.138-1.369-4.434-2.005-4.705a.825.825 0 00-.328-.073zm6.644 16.49c-1.897 0-3.472-.619-4.956-1.946l-.11-.1-.106.104a5.762 5.762 0 01-3.455 1.645c-.15.018-.304.026-.46.026-1.28 0-2.805-.536-3.807-1.036-.235-.117-.718-.359-1.25-.696a19.696 19.696 0 01-2.071-5.763c.245-.196.552-.32.803-.32.758.032.79.386.796 1.256.009 1.195.022 3 2.96 4.423a5.246 5.246 0 002.798.473c.91-.105 1.767-.556 2.48-1.304l.095-.1-.088-.109a21.79 21.79 0 01-.621-.795c-.899-1.204-2.364-4.232-2.807-7.19-.435-2.91.175-5.24 1.632-6.233a2.7 2.7 0 012.623-.246c1.708.727 2.82 2.947 3.05 6.09.197 2.722-.152 5.31-.983 7.29-.147.348-.31.68-.483.987l-.06.106.087.084c1.218 1.184 2.42 1.712 3.899 1.712.527 0 1.101-.066 1.755-.2 1.16-.238 2.311-.98 3.328-2.148l.086-.099-.185-.231c-2.177-2.737-3.694-6.336-4.272-10.133-.132-.867-1.183-8.509 2.592-9.868.38-.137.765-.207 1.145-.207.591 0 1.166.165 1.712.49 2.299 1.368 3.69 5.546 3.875 8.966.226 4.147-.674 7.985-2.534 10.805l-.07.108.091.09c1.562 1.555 3.218 2.378 4.787 2.378.073 0 .145-.002.217-.005 1.494-.075 2.83-.815 3.86-2.14 2.49-3.198 2.686-9.414.796-17.527l.136-.01c2.488 8.609 2.26 15.687.37 18.498-1.187 1.767-2.891 2.719-5.062 2.826a6.378 6.378 0 01-.321.008c-1.97 0-3.985-.915-5.83-2.648l-.114-.107-.107.114c-1.232 1.306-2.65 2.153-4.1 2.45-.747.153-1.46.232-2.12.232z" fill="#fff"/><path fill-rule="evenodd" clip-rule="evenodd" d="M62.996 13.347h-2.198a.464.464 0 00-.413.241l-4.358 8.285c-.16.308-.425.308-.587 0l-4.35-8.285a.464.464 0 00-.412-.241h-2.217c-.345 0-.567.342-.41.631l6.817 12.45c.08.144.237.235.41.235h.999a.466.466 0 00.41-.238l6.72-12.45c.155-.287-.067-.628-.41-.628zM100.587 13.351h-2.198a.464.464 0 00-.413.241l-4.358 8.286c-.16.308-.425.308-.588 0l-4.35-8.286a.464.464 0 00-.411-.24h-2.217c-.345 0-.567.342-.41.63l6.817 12.45c.08.144.237.235.41.235h.999a.466.466 0 00.41-.237l6.719-12.45c.156-.287-.066-.629-.41-.629zM75.577 24.036h-7.673c-.254 0-.46-.194-.46-.432v-1.955c0-.24.206-.433.46-.433h7.075c.254 0 .46-.194.46-.434v-1.73a.447.447 0 00-.46-.433h-7.056c-.254 0-.46-.194-.46-.433v-1.748c0-.239.207-.433.46-.433h7.645c.255 0 .461-.194.461-.434v-1.774c0-.24-.206-.434-.46-.434H65.112a.447.447 0 00-.46.434v12.404c0 .24.206.434.46.434h10.464c.253 0 .46-.194.46-.434v-1.732c0-.239-.207-.433-.46-.433zM113.127 24.036h-7.672c-.254 0-.46-.194-.46-.432v-1.955c0-.24.206-.433.46-.433h7.075c.254 0 .46-.194.46-.434v-1.73c0-.24-.206-.433-.46-.433h-7.056c-.254 0-.46-.194-.46-.433v-1.748c0-.239.206-.433.46-.433h7.645c.255 0 .461-.194.461-.434v-1.774c0-.24-.206-.434-.461-.434h-10.455c-.254 0-.46.194-.46.434v12.404c0 .24.206.434.46.434h10.463c.254 0 .461-.194.461-.434v-1.732c0-.239-.207-.433-.461-.433zM127.539 13.345h-11.952c-.253 0-.459.194-.459.432v1.757c0 .238.206.432.459.432h4.14c.255 0 .461.194.461.434v9.823c0 .24.206.433.46.433h1.858c.254 0 .461-.194.461-.433v-9.855c0-.239.206-.433.459-.433h4.113c.253 0 .461-.195.461-.434v-1.724c0-.238-.208-.432-.461-.432zM88.736 24.009H81.41c-.254 0-.46-.194-.46-.433v-9.809a.447.447 0 00-.46-.434h-1.906a.447.447 0 00-.46.434V26.2c0 .24.206.434.46.434h10.152c.254 0 .461-.194.461-.434v-1.758c0-.238-.207-.432-.46-.432z" fill="#412E46"/></svg>
